src/components/atoms/Icon/svgs/cpu.svg

<svg width="24" height="24" viewBox="0 0 24 24" fill="none" xmlns="http://www.w3.org/2000/svg">
    <g clip-path="url(#clip0_210_1062)">
        <path
            d="M18 4H6C4.89543 4 4 4.89543 4 6V18C4 19.1046 4.89543 20 6 20H18C19.1046 20 20 19.1046 20 18V6C20 4.89543 19.1046 4 18 4Z"
            stroke="currentColor" stroke-width="2" stroke-linecap="round" stroke-linejoin="round" />
        <path d="M15 9H9V15H15V9Z" stroke="currentColor" stroke-width="2" stroke-linecap="round"
            stroke-linejoin="round" />
        <path d="M9 1V4" stroke="currentColor" stroke-width="2" stroke-linecap="round" stroke-linejoin="round" />
        <path d="M15 1V4" stroke="currentColor" stroke-width="2" stroke-linecap="round" stroke-linejoin="round" />
        <path d="M9 20V23" stroke="currentColor" stroke-width="2" stroke-linecap="round" stroke-linejoin="round" />
        <path d="M15 20V23" stroke="currentColor" stroke-width="2" stroke-linecap="round" stroke-linejoin="round" />
        <path d="M20 9H23" stroke="currentColor" stroke-width="2" stroke-linecap="round" stroke-linejoin="round" />
        <path d="M20 14H23" stroke="currentColor" stroke-width="2" stroke-linecap="round" stroke-linejoin="round" />
        <path d="M1 9H4" stroke="currentColor" stroke-width="2" stroke-linecap="round" stroke-linejoin="round" />
        <path d="M1 14H4" stroke="currentColor" stroke-width="2" stroke-linecap="round" stroke-linejoin="round" />
    </g>
    <defs>
        <clipPath id="clip0_210_1062">
            <rect width="24" height="24" fill="white" />
        </clipPath>
    </defs>
</svg>

<svg viewBox="0 0 24 24" fill="none" xmlns="http://www.w3.org/2000/svg">
    <g clip-path="url(#clip0_210_1062)" stroke="currentColor" stroke-width="2" stroke-linecap="round" stroke-linejoin="round">
        <path d="M18 4H6a2 2 0 00-2 2v12a2 2 0 002 2h12a2 2 0 002-2V6a2 2 0 00-2-2z"/>
        <path d="M15 9H9v6h6V9z"/>
        <path d="M9 1v3"/>
        <path d="M15 1v3"/>
        <path d="M9 20v3"/>
        <path d="M15 20v3"/>
        <path d="M20 9h3"/>
        <path d="M20 14h3"/>
        <path d="M1 9h3"/>
        <path d="M1 14h3"/>
    </g>
    <defs>
        <clipPath id="clip0_210_1062">
            <path fill="#fff" d="M0 0h24v24H0z"/>
        </clipPath>
    </defs>
</svg>
